flaticon/medical/teeth-3.svg

<svg xmlns="http://www.w3.org/2000/svg" width="32" height="32" viewBox="0 0 24 24">
    <path d="M 19.976562 3.546875 L 4.023438 3.546875 C 1.804688 3.546875 0 5.351562 0 7.570312 L 0 10.59375 C 0 11.78125 0.964844 12.746094 2.152344 12.746094 L 2.503906 12.746094 C 2.242188 14.738281 2.042969 16.941406 2 18.335938 C 1.945312 20.101562 4.160156 20.257812 5.777344 20.375 L 6.089844 20.398438 C 6.578125 20.433594 6.953125 20.453125 7.324219 20.453125 C 7.691406 20.453125 8.058594 20.433594 8.535156 20.390625 C 8.738281 20.371094 8.949219 20.359375 9.160156 20.34375 C 10.1875 20.273438 11.390625 20.191406 12 19.515625 C 12.609375 20.191406 13.8125 20.273438 14.839844 20.34375 C 15.050781 20.359375 15.261719 20.371094 15.464844 20.390625 C 15.941406 20.433594 16.308594 20.453125 16.671875 20.453125 C 17.046875 20.453125 17.421875 20.433594 17.90625 20.398438 L 18.222656 20.375 C 19.839844 20.257812 22.054688 20.101562 22 18.335938 C 21.957031 16.941406 21.757812 14.738281 21.492188 12.746094 L 21.847656 12.746094 C 23.035156 12.746094 24 11.78125 24 10.59375 L 24 7.570312 C 24 5.351562 22.195312 3.546875 19.976562 3.546875 Z M 9.105469 19.546875 C 8.890625 19.558594 8.671875 19.574219 8.464844 19.59375 C 7.554688 19.675781 7.066406 19.667969 6.152344 19.597656 L 5.835938 19.574219 C 4.097656 19.453125 2.773438 19.285156 2.800781 18.359375 C 2.871094 16.105469 3.351562 11.707031 3.84375 9.632812 C 4.28125 7.800781 5.714844 7.546875 7.199219 7.546875 C 9.84375 7.546875 10.300781 7.617188 10.957031 10.125 C 11.515625 12.253906 11.589844 16.957031 11.601562 18.347656 C 11.605469 19.308594 10.664062 19.441406 9.105469 19.546875 Z M 18.164062 19.574219 L 17.847656 19.597656 C 16.933594 19.667969 16.445312 19.675781 15.535156 19.59375 C 15.328125 19.574219 15.109375 19.558594 14.894531 19.546875 C 13.335938 19.441406 12.394531 19.308594 12.398438 18.347656 C 12.410156 16.957031 12.484375 12.253906 13.042969 10.125 C 13.699219 7.617188 14.15625 7.546875 16.800781 7.546875 C 18.285156 7.546875 19.71875 7.800781 20.15625 9.632812 C 20.648438 11.707031 21.128906 16.105469 21.199219 18.359375 C 21.226562 19.285156 19.902344 19.453125 18.164062 19.574219 Z M 23.199219 10.59375 C 23.199219 11.339844 22.59375 11.945312 21.847656 11.945312 L 21.453125 11.945312 C 21.296875 11.09375 21.121094 10.234375 20.933594 9.445312 C 20.355469 7.027344 18.296875 6.746094 16.800781 6.746094 C 13.988281 6.746094 13.0625 6.890625 12.269531 9.921875 C 12.167969 10.3125 12.078125 10.730469 12 11.179688 C 11.921875 10.730469 11.832031 10.3125 11.730469 9.921875 C 10.9375 6.890625 10.011719 6.746094 7.199219 6.746094 C 5.703125 6.746094 3.644531 7.027344 3.066406 9.445312 C 2.878906 10.234375 2.703125 11.09375 2.546875 11.945312 L 2.152344 11.945312 C 1.40625 11.945312 0.800781 11.339844 0.800781 10.59375 L 0.800781 7.570312 C 0.800781 5.792969 2.246094 4.347656 4.023438 4.347656 L 19.976562 4.347656 C 21.753906 4.347656 23.199219 5.792969 23.199219 7.570312 Z M 23.199219 10.59375"/>
</svg>

<svg xmlns="http://www.w3.org/2000/svg" width="32" height="32" viewBox="0 0 24 24">
    <path d="M19.977 3.547H4.023A4.028 4.028 0 0 0 0 7.57v3.024c0 1.187.965 2.152 2.152 2.152h.352c-.262 1.992-.461 4.195-.504 5.59-.055 1.766 2.16 1.922 3.777 2.039l.313.023c.488.036.863.055 1.234.055.367 0 .735-.02 1.211-.062.203-.02.414-.032.625-.047 1.027-.07 2.23-.153 2.84-.828.61.675 1.813.757 2.84.828.21.015.422.027.625.047.476.043.844.062 1.207.062.375 0 .75-.02 1.234-.055l.317-.023c1.617-.117 3.832-.273 3.777-2.04-.043-1.394-.242-3.597-.508-5.589h.356A2.154 2.154 0 0 0 24 10.594V7.57a4.028 4.028 0 0 0-4.023-4.023zm-10.872 16c-.214.012-.433.027-.64.047-.91.082-1.399.074-2.313.004l-.316-.024c-1.738-.12-3.063-.289-3.035-1.215.07-2.254.55-6.652 1.043-8.726.437-1.832 1.87-2.086 3.355-2.086 2.645 0 3.102.07 3.758 2.578.559 2.129.633 6.832.645 8.223.003.96-.938 1.093-2.497 1.199zm9.06.027l-.317.024c-.914.07-1.403.078-2.313-.004-.207-.02-.426-.035-.64-.047-1.56-.106-2.5-.238-2.497-1.2.012-1.39.086-6.093.645-8.222.656-2.508 1.113-2.578 3.758-2.578 1.484 0 2.918.254 3.355 2.086.492 2.074.973 6.472 1.043 8.726.028.926-1.297 1.094-3.035 1.215zm5.034-8.98c0 .746-.605 1.351-1.351 1.351h-.395a50.172 50.172 0 0 0-.52-2.5c-.578-2.418-2.636-2.699-4.132-2.699-2.813 0-3.738.145-4.531 3.176-.102.39-.192.808-.27 1.258-.078-.45-.168-.867-.27-1.258-.793-3.031-1.718-3.176-4.53-3.176-1.497 0-3.555.281-4.134 2.7-.187.788-.363 1.648-.52 2.5h-.394a1.352 1.352 0 0 1-1.351-1.352V7.57a3.226 3.226 0 0 1 3.222-3.222h15.954a3.226 3.226 0 0 1 3.222 3.222zm0 0"/>
</svg>
